X:130
T:Morning Dew (r)
B:NFID.166
130morn_d
S:F&MB
L:1/8
M:C
R:reel
Q:360
K:Em
P:part A
d^c|B2EB FBed|B2GB ADFA|B2EB FBEA|dedB ADFA|
B2EB FBed|B2GB ADFA|B2EB FBEA|dedB AGFD||
P:part B
EBEB BAFA|EBEe ADFA|EBEB BAFA|dfdB ADFA|
EBEB BAFA|EBEe ADFA|EBEB BAFA|dfdB AGFA||
P:part C
B2eB fBeB|B2eB ADFA|(3BBB eB fBeB|dedB ADFA|
B2eB fBed|B2eB ADFA|(3B^cd ea fbec|B^cdB ADFA||
P:part D
BAGF EFGA|BEE2 BAFA|BAGF EFGE|FB, (3B,B,B, FB,GB,|
BAGF EFGA|BEE2 BAFA|(3B^cd ea fbec|B^cdB ADFA||
= = =
P:variation A6-8
EBGB AGFD|BAGF EFGA|BABd ADFA|
P:variation B7
[B3E3]e BAFA|

%%%

